X:205
T:Handy, Me Boys (b)
M:C
L:1/8
K:F
F2|\
A2AA F2F2|A2A2 F4|A2AA B3A|A2 G4 E2|
G2GG E2E2|G2G2 E4|c2cc c3B|A2 F4  ||
